resources/svg/terminal.svg

<svg xmlns="http://www.w3.org/2000/svg" viewBox="0 0 15 15" fill="currentColor"><path fill-rule="evenodd" clip-rule="evenodd" d="M0 2.5C0 1.67157 0.671573 1 1.5 1H13.5C14.3284 1 15 1.67157 15 2.5V12.5C15 13.3284 14.3284 14 13.5 14H1.5C0.671573 14 0 13.3284 0 12.5V2.5ZM5.79293 7.50001L3.14648 4.85356L3.85359 4.14645L7.20714 7.50001L3.85359 10.8536L3.14648 10.1465L5.79293 7.50001ZM12 11H8V10H12V11Z" fill="black"/></svg>

<svg xmlns="http://www.w3.org/2000/svg" viewBox="0 0 15 15" fill="currentColor"><path fill-rule="evenodd" clip-rule="evenodd" d="M0 2.5A1.5 1.5 0 011.5 1h12A1.5 1.5 0 0115 2.5v10a1.5 1.5 0 01-1.5 1.5h-12A1.5 1.5 0 010 12.5v-10zm5.793 5L3.146 4.854l.708-.708L7.207 7.5l-3.353 3.354-.708-.707L5.793 7.5zM12 11H8v-1h4v1z" fill="currentColor"/></svg>
